assets/media/icons/brands/gs.svg

<?xml version="1.0" standalone="no"?>
<!DOCTYPE svg PUBLIC "-//W3C//DTD SVG 1.0//EN" "http://www.w3.org/TR/2001/REC-SVG-20010904/DTD/svg10.dtd">
<svg xmlns="http://www.w3.org/2000/svg" xmlns:xlink="http://www.w3.org/1999/xlink" id="body_1" width="1659" height="1244">

<g transform="matrix(2.9625003 0 0 2.9625003 -0 29.500011)">
	<g transform="matrix(1.63555 0 0 1.63555 145 64.9992)">
	</g>
    <path transform="matrix(1.63555 0 0 1.63555 145 64.9992)"  d="M0 0L165.082 0L165.082 165.083L0 165.083L0 0z" stroke="none" fill="#64A8F0" fill-rule="nonzero" />
	<g transform="matrix(1.63555 0 0 1.63555 145 64.9992)">
	</g>
    <path transform="matrix(1.63555 0 0 1.63555 145 64.9992)"  d="M49.811 69.332L44.426003 69.332L44.426003 66.808C 43.753002 68.49 41.902004 69.668 39.377003 69.668C 37.189003 69.668 33.823 68.826 33.823 63.61C 33.823 58.73 37.022003 57.721 40.388 56.206C 43.753002 54.691 44.089 54.523003 44.089 53.345L44.089 53.345L44.089 49.643C 44.089 47.960003 43.247 47.287003 41.565002 47.455C 40.892002 47.455 39.714 47.792004 39.714 48.633003C 39.546 49.811005 40.724 49.811005 40.892002 51.325005C 41.061 53.514004 39.209003 54.354004 37.526 54.354004C 36.349 54.186005 35.002003 53.514004 34.833 51.662003C 34.665 48.801003 38.031 46.277 42.743 46.277C 44.931 46.277 46.276 46.614002 47.455 47.287C 48.97 48.296997 49.811 49.475 49.811 52.503L49.811 52.503L49.811 69.332zM77.745 41.902L77.745 48.465C 78.587006 47.287 80.102005 46.445 81.952 46.277C 85.65401 45.94 88.178 48.297 88.178 53.009L88.178 53.009L88.178 69.332L82.289 69.332L82.289 52.335C 82.289 50.315 82.289 48.633 80.942 48.296997C 80.438 48.128 79.597 48.296997 78.923004 48.801C 78.082 49.642998 77.745 50.652 77.745 52.335L77.745 52.335L77.745 69.332L72.023 69.332L72.023 63.273003C 71.014 66.134 67.48 69.668 63.441 69.668C 59.907 69.668 53.682003 67.985 53.682003 58.225998C 53.682003 49.137997 59.739002 46.276997 62.937004 46.276997C 65.461006 46.276997 67.144005 46.949997 68.15301 48.632996C 68.99501 49.978996 69.16301 52.166996 67.98501 53.513996C 66.47001 55.026997 63.272007 54.690994 62.76901 52.671997C 62.264008 50.819996 63.272007 49.978996 63.946007 49.137997C 64.619 48.464996 64.451004 47.454998 62.937008 47.454998C 60.917007 47.454998 60.244007 49.642998 59.90701 52.335C 59.57101 56.542 59.57101 60.412 60.076008 63.778C 60.412006 66.134 61.085007 68.321 63.946007 68.321C 67.98501 68.49 72.02301 63.105 72.02301 57.384L72.02301 57.384L72.02301 41.902zM105.847 52.335L104.67 52.335C 103.997 49.811 102.987 47.624 100.295 47.454998C 98.612 47.287 97.097 48.296997 96.928 49.810997C 96.76 51.324997 97.265 52.671997 100.295 54.353996C 104.165 56.541996 107.194 57.551994 107.194 62.095997C 107.194 66.976 102.987 69.332 99.453 69.332L99.453 69.332L92.721 69.332L92.721 60.917L93.9 60.917C 94.742004 65.293 96.088005 67.985 99.285 68.153C 101.304 68.153 102.818 66.976 102.818 64.788C 102.818 62.601 101.472 61.254 98.275 59.402C 94.742004 57.215 92.553 55.869 92.553 52.84C 92.553 48.801 95.415 46.277 99.958 46.277L99.958 46.277L105.847 46.277zM29.279999 19.52L28.102999 19.52C 27.092999 14.809 24.904999 11.274 21.876 11.106001C 19.855999 10.938001 18.68 12.116001 17.668999 13.800001C 16.659998 15.818001 16.154 20.025002 16.154 25.074001C 16.154 29.786001 16.323 33.319 16.828 35.844C 17.164 37.022003 18.005999 38.873 20.192999 38.873C 21.370998 38.873 22.213 38.536 22.717999 37.863003C 23.559998 36.853004 23.727999 34.834003 23.727999 33.488003L23.727999 33.488003L23.727999 28.944002C 23.727999 27.262003 23.223 26.252003 22.380999 25.747002C 21.707998 25.410002 20.697998 25.410002 20.192999 25.242002L20.192999 25.242002L20.192999 24.064003L29.616999 24.064003L29.616999 48.128002L28.439 48.128002C 27.935 46.277 27.598 44.931004 26.757 43.416C 25.915 41.902 24.4 40.22 21.876 40.22C 19.184 40.051003 17.164 41.734 17.164 44.258003C 17.164 47.624004 19.184 48.465004 22.886 50.483C 26.42 52.503002 30.963 54.187 30.963 60.076004C 30.963 65.798004 26.083 69.332 20.529999 69.332L20.529999 69.332L11.610999 69.332L11.610999 57.721L12.789 57.721C 14.304 66.471 18.006 67.985 20.529999 67.985C 23.727999 67.985 25.241 65.966 25.241 63.105C 25.073 59.402 22.55 58.057 19.015999 56.206C 13.9679985 53.345 11.610998 51.998 11.610998 47.287003C 11.778998 43.248 14.977999 40.724003 18.510998 39.715004C 11.105997 38.873005 8.918998 32.143005 9.086998 24.905003C 9.086998 17.670002 13.293998 9.929003 21.538998 9.929003L21.538998 9.929003L29.279999 9.929003zM44.088997 55.701L42.237995 56.879C 40.387997 58.057003 40.050995 59.571003 39.881996 61.254C 39.713997 62.601 39.713997 63.946003 39.881996 65.798004C 39.881996 67.817 41.060997 68.15301 42.068996 67.648C 43.415997 67.143005 44.088997 65.125 44.088997 62.601zM133.27701 37.694L127.72401 37.694L127.72401 35.171C 127.05101 37.022003 125.200005 38.199 122.675 38.199C 120.656006 38.199 117.122 37.190002 117.122 31.974C 117.122 27.093 120.32 26.084002 123.854004 24.569C 127.051 23.224 127.387 23.054 127.387 21.708L127.387 21.708L127.387 18.006C 127.387 16.492 126.547005 15.818001 124.863 15.818001C 124.19 15.986001 123.012 16.323 123.012 17.164001C 122.843 18.175001 124.021 18.175001 124.19 19.689001C 124.358 22.045002 122.507 22.886002 120.825005 22.718C 119.646 22.718 118.3 22.045 118.132 20.194C 117.964005 17.164 121.329 14.641001 126.041 14.641001C 128.229 14.641001 129.575 15.145 130.753 15.818001C 132.26701 16.66 133.27701 18.006 133.27701 21.035zM47.11801 16.66C 45.77201 15.482 44.089012 14.641 42.06901 14.641C 40.05101 14.641 38.53601 15.481999 37.02101 16.66C 34.665012 18.68 33.151012 22.382 33.151012 26.42C 33.151012 30.626999 34.665012 34.16 37.02101 36.181C 38.53601 37.358 40.05101 38.199 42.06901 38.199C 44.089012 38.199 45.77201 37.358 47.11801 36.181C 49.643013 34.16 50.98801 30.626999 50.98801 26.42C 50.98801 22.382 49.64301 18.68 47.11801 16.66zM81.61601 10.434L81.61601 37.694L76.06301 37.694L76.06301 35.507C 75.558014 36.686 74.21101 38.031 71.85501 38.031C 65.96601 38.031 64.45101 30.458998 64.61901 25.914997C 64.78701 19.183998 68.15301 14.808997 72.36001 14.808997C 74.04301 14.808997 75.22201 15.649997 75.726006 16.827997L75.726006 16.827997L75.726006 10.433997zM92.38501 15.146L92.38501 17.67C 93.05801 16.155 94.74201 14.809 96.92801 14.641C 99.62101 14.473 101.47201 15.481999 102.31301 17.838C 102.987015 16.491999 104.501015 14.808999 107.02501 14.640999C 110.72701 14.472999 113.25201 16.66 113.25201 21.371998L113.25201 21.371998L113.25201 37.694L107.53001 37.694L107.53001 20.699C 107.53001 18.68 107.36201 16.997 106.01601 16.66C 105.51101 16.492 104.838005 16.66 104.16501 17.164C 103.323006 18.006 102.98701 19.015999 102.98701 20.531L102.98701 20.531L102.98701 37.694L97.26501 37.694L97.26501 20.699C 97.26501 18.68 97.26501 16.997 95.91901 16.66C 95.41501 16.492 94.742004 16.66 94.06801 17.164C 93.05801 18.006 92.89001 19.015999 92.89001 20.699L92.89001 20.699L92.89001 37.694L87.16901 37.694L87.16901 15.146zM60.74901 37.694L54.85901 37.694L54.85901 10.434L60.74901 10.434zM144.38301 37.694L138.66202 37.694L138.66202 15.146L144.04701 15.146L144.04701 17.67C 144.72002 16.155 146.40302 14.809 148.59102 14.641C 152.29301 14.473 154.81702 16.66 154.81702 21.372L154.81702 21.372L154.81702 37.694L148.92702 37.694L148.92702 20.699C 148.92702 18.68 148.92702 16.997 147.58102 16.66C 147.07602 16.492 146.23503 16.66 145.56102 17.164C 144.72002 18.006 144.38303 19.015999 144.38303 20.699zM44.931007 26.42C 44.931007 30.626999 44.931007 33.993 44.257008 35.676C 43.753006 36.517 43.24701 37.022 42.069008 37.022C 41.06101 37.022 40.38801 36.517 40.051006 35.676C 39.209007 33.993 39.209007 30.626999 39.209007 26.419998C 39.209007 22.381998 39.209007 18.847998 40.051006 17.163998C 40.38801 16.322998 41.061005 15.817998 42.069008 15.817998C 43.24701 15.817998 43.753006 16.322998 44.257008 17.163998C 45.100006 18.847998 44.931007 22.381998 44.931007 26.419998zM74.716 16.997C 75.894005 18.68 75.894005 22.718 75.894005 25.915C 75.894005 29.28 76.063 33.656002 74.716 35.507C 74.211006 36.181 73.707 36.517 72.865005 36.517C 71.688 36.517 71.01401 35.170998 70.67801 32.982998C 70.50901 30.963997 70.50901 28.438997 70.50901 25.746998C 70.50901 21.203999 70.84601 16.154999 73.03301 16.154999C 73.875015 16.154999 74.21101 16.491999 74.71601 16.996998zM127.38701 24.232L125.53601 25.41C 123.68501 26.589 123.34801 28.103 123.18001 29.786C 123.01201 31.132 123.01201 32.309998 123.18001 34.329C 123.34801 36.181 124.52701 36.517 125.53601 36.181C 126.71501 35.676 127.38701 33.488 127.38701 31.132z" stroke="none" fill="#FFFFFF" fill-rule="nonzero" />
</g>
</svg>

<svg clip-rule="evenodd" fill-rule="evenodd" stroke-linejoin="round" stroke-miterlimit="1.41421" viewBox="0 0 560 400" xmlns="http://www.w3.org/2000/svg"><g transform="matrix(1.63555 0 0 1.63555 145 64.9992)"><path d="m0 0h165.082v165.083h-165.082z" fill="#64a8f0"/><path d="m49.811 69.332h-5.385v-2.524c-.673 1.682-2.524 2.86-5.049 2.86-2.188 0-5.554-.842-5.554-6.058 0-4.88 3.199-5.889 6.565-7.404 3.365-1.515 3.701-1.683 3.701-2.861v-3.702c0-1.683-.842-2.356-2.524-2.188-.673 0-1.851.337-1.851 1.178-.168 1.178 1.01 1.178 1.178 2.692.169 2.189-1.683 3.029-3.366 3.029-1.177-.168-2.524-.84-2.693-2.692-.168-2.861 3.198-5.385 7.91-5.385 2.188 0 3.533.337 4.712 1.01 1.515 1.01 2.356 2.188 2.356 5.216zm27.934-27.43v6.563c.842-1.178 2.357-2.02 4.207-2.188 3.702-.337 6.226 2.02 6.226 6.732v16.323h-5.889v-16.997c0-2.02 0-3.702-1.347-4.038-.504-.169-1.345 0-2.019.504-.841.842-1.178 1.851-1.178 3.534v16.997h-5.722v-6.059c-1.009 2.861-4.543 6.395-8.582 6.395-3.534 0-9.759-1.683-9.759-11.442 0-9.088 6.057-11.949 9.255-11.949 2.524 0 4.207.673 5.216 2.356.842 1.346 1.01 3.534-.168 4.881-1.515 1.513-4.713 1.177-5.216-.842-.505-1.852.503-2.693 1.177-3.534.673-.673.505-1.683-1.009-1.683-2.02 0-2.693 2.188-3.03 4.88-.336 4.207-.336 8.077.169 11.443.336 2.356 1.009 4.543 3.87 4.543 4.039.169 8.077-5.216 8.077-10.937v-15.482zm28.102 10.433h-1.177c-.673-2.524-1.683-4.711-4.375-4.88-1.683-.168-3.198.842-3.367 2.356-.168 1.514.337 2.861 3.367 4.543 3.87 2.188 6.899 3.198 6.899 7.742 0 4.88-4.207 7.236-7.741 7.236h-6.732v-8.415h1.179c.842 4.376 2.188 7.068 5.385 7.236 2.019 0 3.533-1.177 3.533-3.365 0-2.187-1.346-3.534-4.543-5.386-3.533-2.187-5.722-3.533-5.722-6.562 0-4.039 2.862-6.563 7.405-6.563h5.889zm-76.567-32.815h-1.177c-1.01-4.711-3.198-8.246-6.227-8.414-2.02-.168-3.196 1.01-4.207 2.694-1.009 2.018-1.515 6.225-1.515 11.274 0 4.712.169 8.245.674 10.77.336 1.178 1.178 3.029 3.365 3.029 1.178 0 2.02-.337 2.525-1.01.842-1.01 1.01-3.029 1.01-4.375v-4.544c0-1.682-.505-2.692-1.347-3.197-.673-.337-1.683-.337-2.188-.505v-1.178h9.424v24.064h-1.178c-.504-1.851-.841-3.197-1.682-4.712-.842-1.514-2.357-3.196-4.881-3.196-2.692-.169-4.712 1.514-4.712 4.038 0 3.366 2.02 4.207 5.722 6.225 3.534 2.02 8.077 3.704 8.077 9.593 0 5.722-4.88 9.256-10.433 9.256h-8.919v-11.611h1.178c1.515 8.75 5.217 10.264 7.741 10.264 3.198 0 4.711-2.019 4.711-4.88-.168-3.703-2.691-5.048-6.225-6.899-5.048-2.861-7.405-4.208-7.405-8.919.168-4.039 3.367-6.563 6.9-7.572-7.405-.842-9.592-7.572-9.424-14.81 0-7.235 4.207-14.976 12.452-14.976h7.741zm14.809 36.181-1.851 1.178c-1.85 1.178-2.187 2.692-2.356 4.375-.168 1.347-.168 2.692 0 4.544 0 2.019 1.179 2.355 2.187 1.85 1.347-.505 2.02-2.523 2.02-5.047zm89.188-18.007h-5.553v-2.523c-.673 1.851-2.524 3.028-5.049 3.028-2.019 0-5.553-1.009-5.553-6.225 0-4.881 3.198-5.89 6.732-7.405 3.197-1.345 3.533-1.515 3.533-2.861v-3.702c0-1.514-.84-2.188-2.524-2.188-.673.168-1.851.505-1.851 1.346-.169 1.011 1.009 1.011 1.178 2.525.168 2.356-1.683 3.197-3.365 3.029-1.179 0-2.525-.673-2.693-2.524-.168-3.03 3.197-5.553 7.909-5.553 2.188 0 3.534.504 4.712 1.177 1.514.842 2.524 2.188 2.524 5.217zm-86.159-21.034c-1.346-1.178-3.029-2.019-5.049-2.019-2.018 0-3.533.841-5.048 2.019-2.356 2.02-3.87 5.722-3.87 9.76 0 4.207 1.514 7.74 3.87 9.761 1.515 1.177 3.03 2.018 5.048 2.018 2.02 0 3.703-.841 5.049-2.018 2.525-2.021 3.87-5.554 3.87-9.761 0-4.038-1.345-7.74-3.87-9.76zm34.498-6.226v27.26h-5.553v-2.187c-.505 1.179-1.852 2.524-4.208 2.524-5.889 0-7.404-7.572-7.236-12.116.168-6.731 3.534-11.106 7.741-11.106 1.683 0 2.862.841 3.366 2.019v-6.394zm10.769 4.712v2.524c.673-1.515 2.357-2.861 4.543-3.029 2.693-.168 4.544.841 5.385 3.197.674-1.346 2.188-3.029 4.712-3.197 3.702-.168 6.227 2.019 6.227 6.731v16.322h-5.722v-16.995c0-2.019-.168-3.702-1.514-4.039-.505-.168-1.178 0-1.851.504-.842.842-1.178 1.852-1.178 3.367v17.163h-5.722v-16.995c0-2.019 0-3.702-1.346-4.039-.504-.168-1.177 0-1.851.504-1.01.842-1.178 1.852-1.178 3.535v16.995h-5.721v-22.548zm-31.636 22.548h-5.89v-27.26h5.89zm83.634 0h-5.721v-22.548h5.385v2.524c.673-1.515 2.356-2.861 4.544-3.029 3.702-.168 6.226 2.019 6.226 6.731v16.322h-5.89v-16.995c0-2.019 0-3.702-1.346-4.039-.505-.168-1.346 0-2.02.504-.841.842-1.178 1.852-1.178 3.535zm-99.452-11.274c0 4.207 0 7.573-.674 9.256-.504.841-1.01 1.346-2.188 1.346-1.008 0-1.681-.505-2.018-1.346-.842-1.683-.842-5.049-.842-9.256 0-4.038 0-7.572.842-9.256.337-.841 1.01-1.346 2.018-1.346 1.178 0 1.684.505 2.188 1.346.843 1.684.674 5.218.674 9.256zm29.785-9.423c1.178 1.683 1.178 5.721 1.178 8.918 0 3.365.169 7.741-1.178 9.592-.505.674-1.009 1.01-1.851 1.01-1.177 0-1.851-1.346-2.187-3.534-.169-2.019-.169-4.544-.169-7.236 0-4.543.337-9.592 2.524-9.592.842 0 1.178.337 1.683.842zm52.671 7.235-1.851 1.178c-1.851 1.179-2.188 2.693-2.356 4.376-.168 1.346-.168 2.524 0 4.543.168 1.852 1.347 2.188 2.356 1.852 1.179-.505 1.851-2.693 1.851-5.049z" fill="#fff"/></g></svg>
